X: 11
T: No_1_Creation_or_Beginning_Song.krn
N: Derived from No_1_Creation_or_Beginning_Song.krn
%%abc-version 2.0
%%abcx-abcm2ps-target-version 5.9.1 (29 Sep 2008)
%%abc-creator hum2abc beta
%%abcx-conversion-date 2019/03/15 08:25:35
%%humdrum-veritas 1430267783
%%humdrum-veritas-data 1341748703
%%linebreak <none>
%%barnumbers 0
L: 1/8
M: 2/4
K: F clef=treble
[K:clef=treble][M:2/4]C2CD | 
C2C2 | 
C2CD | 
C2GF ]|:  
D2DG | 
F2FD | 
C2CF | 
D2D2 | 
D2D2 | 
D2DF | 
C2C2 | 
A,2CD | 
C zC2 | 
A,2CD | 
[M:3/4]C2C2z C | 
[M:2/4]CC B,B, | 
DDC2 | 
DDC2 | 
DD DD | 
DD DF | 
C2C2 | 
A,2CD | 
C2C2 | 
A, z CD | 
[M:3/4]C2C2z C | 
[M:2/4]CC GF :|]  
C2C2 | 
CDC2 | 
C2C2 | 
C2z2 |]  



